X:1
T:Moravia (Stanley), 88.68.86
T:Moravia (Stanley), 88.68.86
T:Albert Augustus Stanley, 1907
T:Public Domain Courtesy of the Cyber Hymnal™
C:Albert Augustus Stanley, 1907
Z:Public Domain
Z:Courtesy of the Cyber Hymnal™
%%score ( 1 2 ) ( 3 4 )
L:1/8
Q:1/4=110
M:4/4
K:E
V:1 treble 
V:2 treble 
V:3 bass 
V:4 bass 
V:1
 [EG]2 | [EB]3 [EA] [DG]2 [DF]2 | E3 [DF] [EG]2 [FB]2 | [Ee]3 [Ed] [Ec]2 [EB]2 | [EB]3 [DA] [EG]4 | %5
 [Ec]3 [Ec] [^Ec]2 [EB]2 | [EB]4 [E^A]4 | [Dd]3 [Gc] [FB]2 [F^A]2 | [Ec]4 [DB]2 [DB]2 | %9
 [DB]2 [Dc]2 [=Dc]2 [DG]2 | [CB]3 [DA] [FA]2 [EA]2 | [DA]2 [DF]2 [DB]2 [DA]2 | [EA]3 [EG] [EG]4 | %13
 [Ge]3 [Gd] [Ec]2 [EB]2 | [Ad]4 [Ac]4 | [AB]2 [AB]2 [DG]3 [DF] | [DF]4 E2 |] %17
V:2
 x2 | x8 | E3 x5 | x8 | x8 | x8 | x8 | x8 | x8 | x8 | x8 | x8 | x8 | x8 | x8 | x8 | x4 E2 |] %17
V:3
 [E,B,]2 | [G,B,]3 [F,B,] B,2 [A,B,]2 | [G,B,]3 [F,B,] [E,B,]2 [A,D]2 | [G,E]3 [G,B,] A,2 [G,B,]2 | %4
 [F,C]3 [B,,B,] [E,B,]4 | A,3 A, [G,B,]2 [C,C]2 | [F,C]4 (C2 F2) | [B,,F]3 [E,E] [F,D]2 [F,C]2 | %8
 [B,,^A,]4 [B,,B,]2 [B,,B,]2 | [B,,A,]2 [B,,A,]2 [B,,^E,]2 [B,,E,]2 | %10
 [B,,F,]3 [B,,F,] [B,,F,]2 [B,,C]2 | [B,,B,]2 [B,,A,]2 [B,,G,]2 [B,,F,]2 | [E,C]3 [E,B,] [E,B,]4 | %13
 [C,C]3 [G,B,] A,2 [G,B,]2 | [F,B,]4 [E,C]4 | [D,F,]2 [D,F,]2 [B,,B,]3 [B,,A,] | [E,A,]4 [E,G,]2 |] %17
V:4
 x2 | x4 B,2 x2 | x8 | x4 A,2 x2 | x8 | A,3 A, x4 | x4 F,4 | x8 | x8 | x8 | x8 | x8 | x8 | %13
 x4 A,2 x2 | x8 | x8 | x6 |] %17

